X:183
T:Trop sovent
C:Manuscript de Montpellier (XIIIe siècle)
R:Motet
M:3/4
L:1/8
Q:1/4=120
K:C 
V:1
G4G2 | E4F2 | G3- G2z | E2F2ED | 
C4DE | G3- G2z | C4E2 | D2E2F2 | 
G3- G2z | G4E2 | F2G2A2 | E3- E2z | 
E2D2C2 | D2E2F2 | G3- G2z | G4 (3FED | 
C4ED | C3- C2z | G4G2 | E4C2 | 
F4ED | C4B,2 | D2E2D2- | D2C4- | C6 |]
V:2
c4 (3BAG | B2c2BA | G4F2 | E4F2 | 
G3- G2z | c2B2A2 | G4B2 | A4B2 | 
c4AB | c3- c2z | D4E2 | E4G2 | 
A4A2 | A2G2FE | D3- D2z | c2B2A2 | 
G4A2 | GFE2D2 | C4D2 | E4DF | 
EDC2DE | GFE2D2 | EDC2B,2- | B,2C4- | C6 |]
V:3
C4C2 | B,3- B,2z | C4D2 | E3- E2z | 
C4B,2 | C3- C2z | C4B,2 | D3- D2z | 
C4D2 | C3- C2z | B,4A,2 | A,3- A,2z | 
A,4C2 | A,3- A,2z | G,4A,2 | C3- C2z | 
C4A,2 | C3- C2z | C4B,2 | A,3- A,2z | 
C6 | G,6 | G,6- | G,2F,4- | F,6 |]





